X:149
T:Waltzes simple chords 48
M:3/4
L:1/8
K:Em
d2 [g2G,2B,2D2]>f2 | e2 [d2G2B,2D2]>c2 | B2 [A2C,2E,2G,2]>B2 | G2 [F2D,2F,2A,2C2] E2 | D2 [G2G,2B,2D2]>A2 |
B2 [d2G,2B,2D2]>e2 | B2 [d2E,2G,2B,2]>e2 | B2 [d4D,4F,4A,4] | ef2< [g2E,2G,2B,2]f |
e2 [d2B,2D2F2]>c2 | B2 [A2A,2^C2E2G2]>B2 | G2 [F2D,2F,2A,2C2] E2 | D2 [G2G,2B,2D2]>E2 |
D2 [G2E,2G,2B,2]>E2 | D2 [G2C,2E,2G,2]>E2 | D2 [G4G,4B,4D4] | d2 [e2E,2G,2B,2]>f2 |
e2 [B2E,2G,2B,2] ^A2 | B2 [d2B,2D2F2]>e2 | d2 [d2B,2D2F2] c2 | B2 [e2E,2G,2B,2]>f2 |
e2 [B2E,2G,2B,2] ^A2 | B2 [d2B,2D2F2]>e2 | d2 [d2D,2F,2A,2C2] e2 | f2 [g2G,2B,2D2]>f2 |
e2 [d2B,2D2F2]>c2 | B2 [A2A,2^C2E2G2]>B2 | G2 [F2D,2F,2A,2C2] E2 | D2 [G2G,2B,2D2]>E2 |
D2 [G2E,2G,2B,2]>E2 | D2 [G2C,2E,2G,2]>E2 | D2 [G4G,4B,4D4] |


